icons/rdt_result_no_test.svg

<svg width="48" height="48" viewBox="0 0 48 48" fill="none" xmlns="http://www.w3.org/2000/svg">
<path d="M36.0001 23.9995C36.0001 23.1711 35.3285 22.4995 34.5001 22.4995C33.6716 22.4995 33.0001 23.1711 33.0001 23.9995C33.0001 24.8279 33.6716 25.4995 34.5001 25.4995C35.3285 25.4995 36.0001 24.8279 36.0001 23.9995Z" fill="black"/>
<path d="M30.7521 23.25C31.1674 23.25 31.5041 23.5858 31.5041 24C31.5041 24.4142 31.1674 24.75 30.7521 24.75C30.3367 24.75 30.0001 24.4142 30.0001 24C30.0001 23.5858 30.3367 23.25 30.7521 23.25Z" fill="black"/>
<path fill-rule="evenodd" clip-rule="evenodd" d="M44 24C44 35.0457 35.0457 44 24 44C12.9543 44 4 35.0457 4 24C4 12.9543 12.9543 4 24 4C35.0457 4 44 12.9543 44 24ZM34.9338 38.2998C31.9029 40.6208 28.1125 42 24 42C14.0589 42 6 33.9411 6 24C6 19.5568 7.60986 15.4897 10.2781 12.35L15.6468 18.0005H14C10.6863 18.0005 8 20.6868 8 24.0005C8 27.3142 10.6863 30.0005 14 30.0005H27.0484L34.9338 38.2998ZM11.6574 10.898L18.4056 18.0005H34C37.3137 18.0005 40 20.6868 40 24.0005C40 27.3142 37.3137 30.0005 34 30.0005H29.8072L36.454 36.9961C39.8719 33.7199 42 29.1085 42 24C42 14.0589 33.9411 6 24 6C19.2226 6 14.8799 7.86119 11.6574 10.898ZM38 24.0005C38 21.7913 36.2091 20.0005 34 20.0005H20.3059L22.2055 21.9998H26.0001C27.1047 21.9998 28.0001 22.8952 28.0001 23.9998C28.0001 25.1024 27.1079 25.9966 26.006 25.9997L27.9069 28.0005H34C36.2091 28.0005 38 26.2096 38 24.0005ZM10 24.0005C10 21.7913 11.7909 20.0005 14 20.0005H17.5471L19.4467 21.9998H14.0001C12.8956 21.9998 12.0001 22.8952 12.0001 23.9998C12.0001 25.1043 12.8956 25.9998 14.0001 25.9998H23.2472L25.1481 28.0005H14C11.7909 28.0005 10 26.2096 10 24.0005Z" fill="black"/>
</svg>

<svg
  xmlns="http://www.w3.org/2000/svg"
  width="24"
  height="24"
  viewBox="0 0 24 24"
  fill="none"
  stroke="currentColor"
  stroke-width="2"
  stroke-linecap="round"
  stroke-linejoin="round"
>
  <path d="M36 24a1.5 1.5 0 1 0-3 0 1.5 1.5 0 0 0 3 0" />
  <path d="M30.752 23.25a.751.751 0 1 1 .002 1.502.751.751 0 0 1-.002-1.502" />
  <path
    fill-rule="evenodd"
    d="M44 24c0 11.046-8.954 20-20 20S4 35.046 4 24 12.954 4 24 4s20 8.954 20 20m-9.066 14.3A17.92 17.92 0 0 1 24 42c-9.941 0-18-8.059-18-18 0-4.443 1.61-8.51 4.278-11.65L15.647 18H14a6 6 0 0 0 0 12h13.048zM11.657 10.898 18.406 18H34a6 6 0 0 1 0 12h-4.193l6.647 6.996A17.95 17.95 0 0 0 42 24c0-9.941-8.059-18-18-18-4.777 0-9.12 1.861-12.343 4.898M38 24.001a4 4 0 0 0-4-4H20.306l1.9 1.999H26a2 2 0 0 1 .006 4l1.9 2H34a4 4 0 0 0 4-4m-28 0a4 4 0 0 1 4-4h3.547l1.9 1.999H14a2 2 0 0 0 0 4h9.247l1.901 2H14a4 4 0 0 1-4-4"
    clip-rule="evenodd"
  />
</svg>
